X: 671
T: Inisheer
B: jims roots
B: ralph
M:3/4
L:1/8
Q: 1/4=100
K:G
V:1 
%TablEdited by Vance Henry
%216
xD GA |: "G"B2 BA Bd | "Bm"B2 BA Bd | "C"E3B AB | "D"D3B AG |
"G"B2 BA Bd | "Bm"B2 BA Bd | "C"E3B "D"(3AGF |[1 "G"G3D GA :|[2 "G"G3A Bd ||
|: "C"e2 ef ed | "Bm"B2 BA Bd | "Em"gf ed "Bm"(3Bcd | "C"e3A "Bm"Bd |
"C"e2 ef ed | "Bm"B2 BA Bd | "C"E3B "D"(3AGF |[1 "G"G3A Bd :|[2 "G"G6 |]
% abcbook-tune_id 6298c25d320acfc3d38eddaf


% abcbook-boost 0
% abcbook-tablature 
% abcbook-transpose 
% abcbook-lastupdated 1665482373213
% abcbook-soundfonts 
% abcbook-repeats 1
% Thomas Walsh &#8211; <a href="http://www.crashedmusic.com" rel="nofollow">http://www.crashedmusic.com</a>

